**harm	**harte	**timestamp	**phrase	**leadinstrument	**kern
*M4/4	*M4/4	*	*	*	*
*B-:	*B-:	*	*	*	*B-:
1r;	N	0	.	r	1r;
=1	=1	=1	=1	=1	=1
*>A_intro	*>A_intro	*>A_intro	*>A_intro	*>A_intro	*>A_intro
1ii7	C:min9	0.302	newline	guitar	1C 1e- 1g 1b-
=2	=2	=2	=2	=2	=2
1V7	F:13	2.806	.	guitar	1F 1a 1cc 1ee-
=3	=3	=3	=3	=3	=3
2I	B-:maj	5.31	.	guitar	2B- 2dd 2ff
2IV	E-:maj	6.562	.	guitar	2E- 2g 2b-
=4	=4	=4	=4	=4	=4
2Ib	B-:maj/3	7.814	.	guitar	2b- 2D 2ff
4V7c	F:7/5	9.066	.	guitar	4f 4a 4C 4ee-
4V7	F:7	9.692	.	guitar	4F 4a 4cc 4ee-
=5	=5	=5	=5	=5	=5
*>B_verse	*>B_verse	*>B_verse	*>B_verse	*>B_verse	*>B_verse
1I	B-:maj	10.318	newline	voice	1B- 1dd 1ff
=6	=6	=6	=6	=6	=6
1VI7	G:7	12.782	.	voice	1G 1b 1dd 1ff
=7	=7	=7	=7	=7	=7
1II7	C:7	15.246	.	voice	1C 1e 1g 1b-
=8	=8	=8	=8	=8	=8
1II7	C:7	17.71	.	voice	1C 1e 1g 1b-
=9	=9	=9	=9	=9	=9
1ii	C:min	20.174	newline	voice	1C 1e- 1g
=10	=10	=10	=10	=10	=10
1V7	F:7	22.638	.	voice	1F 1a 1cc 1ee-
=11	=11	=11	=11	=11	=11
1I	B-:maj	25.101	.	voice	1B- 1dd 1ff
=12	=12	=12	=12	=12	=12
1V7	F:7	27.564	.	voice	1F 1a 1cc 1ee-
=13	=13	=13	=13	=13	=13
1I	B-:maj	30.028	newline	voice	1B- 1dd 1ff
=14	=14	=14	=14	=14	=14
1VI7	G:7	32.506	.	voice	1G 1b 1dd 1ff
=15	=15	=15	=15	=15	=15
1II7	C:7	34.985	.	voice	1C 1e 1g 1b-
=16	=16	=16	=16	=16	=16
1II7	C:7	37.463	.	voice	1C 1e 1g 1b-
=17	=17	=17	=17	=17	=17
1ii7	C:min7	39.942	newline	voice	1C 1e- 1g 1b-
=18	=18	=18	=18	=18	=18
1V7	F:7	42.4	.	voice	1F 1a 1cc 1ee-
=19	=19	=19	=19	=19	=19
2I	B-:maj	44.859	.	voice	2B- 2dd 2ff
2IV	E-:maj	46.088	.	voice	2E- 2g 2b-
=20	=20	=20	=20	=20	=20
1I	B-:maj	47.317	.	voice	1B- 1dd 1ff
=21	=21	=21	=21	=21	=21
*>C_chorus	*>C_chorus	*>C_chorus	*>C_chorus	*>C_chorus	*>C_chorus
1I	B-:maj	49.776	newline	voice	1B- 1dd 1ff
=22	=22	=22	=22	=22	=22
1VI7	G:7	52.213	.	voice	1G 1b 1dd 1ff
=23	=23	=23	=23	=23	=23
1II7	C:7	54.65	.	voice	1C 1e 1g 1b-
=24	=24	=24	=24	=24	=24
1II7	C:7	57.087	.	voice	1C 1e 1g 1b-
=25	=25	=25	=25	=25	=25
1ii7	C:min7	59.524	newline	voice	1C 1e- 1g 1b-
=26	=26	=26	=26	=26	=26
1V7	F:7	61.975	.	voice	1F 1a 1cc 1ee-
=27	=27	=27	=27	=27	=27
1I	B-:maj	64.426	.	voice	1B- 1dd 1ff
=28	=28	=28	=28	=28	=28
1V7	F:7	66.877	.	voice	1F 1a 1cc 1ee-
=29	=29	=29	=29	=29	=29
1I	B-:maj	69.328	newline	voice	1B- 1dd 1ff
=30	=30	=30	=30	=30	=30
1VI7	G:7	71.745	.	voice	1G 1b 1dd 1ff
=31	=31	=31	=31	=31	=31
1II7	C:7	74.162	.	voice	1C 1e 1g 1b-
=32	=32	=32	=32	=32	=32
1II7	C:7	76.58	.	voice	1C 1e 1g 1b-
=33	=33	=33	=33	=33	=33
1ii7	C:min7	78.997	newline	voice	1C 1e- 1g 1b-
=34	=34	=34	=34	=34	=34
1V7	F:7	81.423	.	voice	1F 1a 1cc 1ee-
=35	=35	=35	=35	=35	=35
2I	B-:maj	83.849	.	voice	2B- 2dd 2ff
2IV	E-:maj	85.062	.	voice	2E- 2g 2b-
=36	=36	=36	=36	=36	=36
2Ib	B-:maj/3	86.275	.	voice	2b- 2D 2ff
4V7c	F:7/5	87.488	.	voice	4f 4a 4C 4ee-
4V7	F:7	88.094	.	voice	4F 4a 4cc 4ee-
=37	=37	=37	=37	=37	=37
*>B_verse	*>B_verse	*>B_verse	*>B_verse	*>B_verse	*>B_verse
1I	B-:maj	88.701	newline	voice	1B- 1dd 1ff
=38	=38	=38	=38	=38	=38
1VI7	G:7	91.141	.	voice	1G 1b 1dd 1ff
=39	=39	=39	=39	=39	=39
1II7	C:7	93.582	.	voice	1C 1e 1g 1b-
=40	=40	=40	=40	=40	=40
1II7	C:9	96.023	.	voice	1C 1e 1g 1b-
=41	=41	=41	=41	=41	=41
1ii7	C:min7	98.463	newline	voice	1C 1e- 1g 1b-
=42	=42	=42	=42	=42	=42
1V7	F:7	100.93	.	voice	1F 1a 1cc 1ee-
=43	=43	=43	=43	=43	=43
1I	B-:maj	103.396	.	voice	1B- 1dd 1ff
=44	=44	=44	=44	=44	=44
1V7	F:13	105.863	.	voice	1F 1a 1cc 1ee-
=45	=45	=45	=45	=45	=45
1I	B-:maj	108.329	newline	voice	1B- 1dd 1ff
=46	=46	=46	=46	=46	=46
1VI7	G:7	110.781	.	voice	1G 1b 1dd 1ff
=47	=47	=47	=47	=47	=47
1II7	C:7	113.232	.	voice	1C 1e 1g 1b-
=48	=48	=48	=48	=48	=48
1II7	C:9	115.684	.	voice	1C 1e 1g 1b-
=49	=49	=49	=49	=49	=49
1ii7	C:min7	118.136	newline	voice	1C 1e- 1g 1b-
=50	=50	=50	=50	=50	=50
1V7	F:7	120.612	.	voice	1F 1a 1cc 1ee-
=51	=51	=51	=51	=51	=51
2I	B-:maj	123.087	.	voice	2B- 2dd 2ff
2IV	E-:maj	124.325	.	voice	2E- 2g 2b-
=52	=52	=52	=52	=52	=52
1I	B-:maj	125.563	.	voice	1B- 1dd 1ff
=53	=53	=53	=53	=53	=53
*>C_chorus	*>C_chorus	*>C_chorus	*>C_chorus	*>C_chorus	*>C_chorus
1I	B-:maj	128.039	newline	voice	1B- 1dd 1ff
=54	=54	=54	=54	=54	=54
1VI7	G:7	130.416	.	voice	1G 1b 1dd 1ff
=55	=55	=55	=55	=55	=55
1II7	C:7	132.794	.	voice	1C 1e 1g 1b-
=56	=56	=56	=56	=56	=56
1II7	C:7	135.171	.	voice	1C 1e 1g 1b-
=57	=57	=57	=57	=57	=57
1ii7	C:min7	137.549	newline	voice	1C 1e- 1g 1b-
=58	=58	=58	=58	=58	=58
1V7	F:9	139.992	.	voice	1F 1a 1cc 1ee-
=59	=59	=59	=59	=59	=59
1I	B-:maj	142.436	.	voice	1B- 1dd 1ff
=60	=60	=60	=60	=60	=60
1V7	F:13	144.88	.	voice	1F 1a 1cc 1ee-
=61	=61	=61	=61	=61	=61
1I	B-:maj	147.323	newline	voice	1B- 1dd 1ff
=62	=62	=62	=62	=62	=62
1VI7	G:7	149.728	.	voice	1G 1b 1dd 1ff
=63	=63	=63	=63	=63	=63
1II7	C:7	152.133	.	voice	1C 1e 1g 1b-
=64	=64	=64	=64	=64	=64
1II7	C:7	154.538	.	voice	1C 1e 1g 1b-
=65	=65	=65	=65	=65	=65
1ii7	C:min7	156.943	newline	voice	1C 1e- 1g 1b-
=66	=66	=66	=66	=66	=66
1V7	F:7	159.578	.	voice	1F 1a 1cc 1ee-
=67	=67	=67	=67	=67	=67
2I	B-:maj	162.213	.	voice	2B- 2dd 2ff
2IV	E-:maj	163.531	.	voice	2E- 2g 2b-
=68	=68	=68	=68	=68	=68
1I	B-:maj	164.849	.	voice	1B- 1dd 1ff
1r;	N	167.484	.	r	1r;
1r;	N	171.677	.	r	1r;
*-	*-	*-	*-	*-	*-
!!!OTL: Too Many Rivers
!!!COC: Brenda Lee
!!!BillboardChartDate: 1965/06/05
!!!BillboardPeak: 13
!!!BillboardWeeksOnChart: 13
!!!SampleTargetRank: 76
!!!SampleActualRank: 78
!!!SampleID#: 0696
!!!RDF**harmony: **recip + pitch class of root + harmonic quality
!!!RDF**harte: Chris Harte's syntax, used by MIREX
!!!RDF**phrase: newline = linebreak in original McGill transcription
!!!RDF**timestamp: McGill audio timestamp in seconds
!!!RDF**leadinstrument: original McGill primary instrumentation annotation
!!!RDT: 2017/01/12/
!!!ENC: Nathaniel Condit-Schultz
!!!EST: Awating manual error checking and editing.
